src/assets/img/icon_6.svg

<svg width="66" height="53" viewBox="0 0 66 53" fill="none" xmlns="http://www.w3.org/2000/svg">
<path d="M55.5611 13.5256L48.3331 21.0786C47.4475 22.0041 46.2476 22.5238 44.9967 22.5238H30.5216C30.4762 22.5238 30.4313 22.5333 30.3896 22.5519L10.8446 31.2545C10.812 31.269 10.7909 31.3025 10.7909 31.3396C10.7909 33.1087 12.351 34.4255 14.0013 34.0493L30.4528 30.2995H40.5847C40.596 30.2995 40.6051 30.3095 40.6044 30.3213C40.5046 32.2274 39.3018 33.8754 37.572 34.4762L29.7492 37.1933C28.3676 37.6732 27.725 39.335 28.3984 40.6867L28.4252 40.7405C28.7371 41.3665 29.3934 41.7169 30.0603 41.6134L51.6727 38.2581C53.031 38.0472 54.2887 37.3852 55.2608 36.3694L65.4544 25.7174M56.3438 35.3769V46.381H4.37969V33.3037H11.5419M0.667969 52.0361H62.0801M15.8523 19.3428C15.8523 20.8068 14.7193 21.9936 13.3216 21.9936C11.9239 21.9936 10.7909 20.8068 10.7909 19.3428C10.7909 17.8788 11.9239 16.692 13.3216 16.692C14.7193 16.692 15.8523 17.8788 15.8523 19.3428ZM40.4847 9.79986C40.4847 11.2639 39.3516 12.4507 37.9539 12.4507C36.5563 12.4507 35.4232 11.2639 35.4232 9.79986C35.4232 8.33586 36.5563 7.14905 37.9539 7.14905C39.3516 7.14905 40.4847 8.33586 40.4847 9.79986ZM24.288 5.20513C24.288 7.64513 22.3996 9.62314 20.0702 9.62314C17.7407 9.62314 15.8523 7.64513 15.8523 5.20513C15.8523 2.76512 17.7407 0.787109 20.0702 0.787109C22.3996 0.787109 24.288 2.76512 24.288 5.20513Z" stroke="white"/>
</svg>

<svg xmlns="http://www.w3.org/2000/svg" fill="none" viewBox="0 0 66 53"><path stroke="#fff" d="M55.561 13.526l-7.228 7.553a4.618 4.618 0 0 1-3.336 1.445H30.522c-.046 0-.09.01-.132.028l-19.545 8.703a.093.093 0 0 0-.054.085c0 1.769 1.56 3.085 3.21 2.71l16.452-3.75h10.132c.011 0 .02.01.02.021-.1 1.906-1.303 3.554-3.033 4.155l-7.823 2.717c-1.381.48-2.024 2.142-1.35 3.494l.026.053c.312.627.968.977 1.635.873l21.613-3.355a6.31 6.31 0 0 0 3.588-1.889l10.193-10.652m-9.11 9.66V46.38H4.38V33.304h7.162M.668 52.036H62.08M15.852 19.343c0 1.464-1.133 2.65-2.53 2.65-1.398 0-2.531-1.186-2.531-2.65s1.133-2.651 2.53-2.651c1.398 0 2.531 1.187 2.531 2.65zM40.485 9.8c0 1.464-1.133 2.65-2.531 2.65-1.398 0-2.53-1.186-2.53-2.65s1.132-2.651 2.53-2.651 2.53 1.187 2.53 2.65zM24.288 5.205c0 2.44-1.888 4.418-4.218 4.418s-4.218-1.978-4.218-4.418c0-2.44 1.889-4.418 4.218-4.418 2.33 0 4.218 1.978 4.218 4.418z"/></svg>
